P2
# 17 x 17 grayscale heightmap. 0 is the lowest elevation, 255 is the highest.
17 17
255
 44  50  62  73  79  71  55  42  39  48  63  77  81  70  56  46  44
 50  59  75  89  96  87  67  51  46  56  74  91  98  85  66  53  50
 61  74  97 119 128 115  88  65  58  70  95 122 132 114  86  67  60
 69  87 117 149 164 145 109  78  68  83 116 153 168 144 107  80  69
 72  93 127 163 182 160 117  83  72  90 127 166 181 157 115  85  72
 64  82 111 143 159 140 103  75  66  79 110 145 158 136 101  76  64
 50  64  85 107 119 106  80  61  55  63  84 108 118 101  77  61  50
 37  46  59  73  80  72  57  46  44  48  60  74  79  68  55  45  37
 32  38  46  54  58  53  46  43  45  44  48  54  58  52  45  37  32
 39  49  62  76  85  77  61  49  47  53  67  82  88  76  60  47  39
 54  69  92 118 132 120  94  72  67  77 103 132 141 122  92  68  54
 70  91 124 161 181 164 129  96  87 101 135 171 184 162 124  91  70
 77 101 138 177 198 179 140 102  90 107 146 186 201 177 136  99  77
 68  88 119 151 168 151 116  87  78  90 121 155 168 149 114  85  68
 52  66  87 109 121 109  84  65  59  67  89 113 122 106  80  63  52
 41  50  62  75  82  74  60  49  46  51  64  78  83  73  59  48  41
 36  42  50  57  61  55  47  40  39  42  51  59  62  55  46  40  36
